assets/features/channel/east-asia/jko.svg

<svg width="80" height="80" viewBox="0 0 80 80" fill="none" xmlns="http://www.w3.org/2000/svg">
<g clip-path="url(#clip0_2497_22816)">
<rect width="80" height="80" rx="8" fill="#E72420"/>
<path d="M30.5221 20.8848C31.2121 21.6637 31.1008 22.2869 30.7002 23.2217C30.2995 24.1564 28.7636 26.8049 26.137 29.1195C23.4882 31.4564 21.0842 32.7472 20.0825 33.1701C19.0809 33.5929 18.4576 33.4816 17.7898 32.7027L16.9662 31.7679C16.2762 30.989 16.2094 29.943 16.7882 29.4311C16.7882 29.4311 20.7726 26.8271 22.531 25.2915C24.2673 23.7558 27.4058 19.4827 27.4058 19.4827C27.9845 18.9708 29.0307 19.1711 29.6985 19.95L30.5221 20.8848Z" fill="white"/>
<path d="M30.4999 32.0125L29.6763 31.0555C28.9863 30.2766 27.9401 30.054 27.3391 30.5882C27.3391 30.5882 24.1115 34.9726 22.3085 36.5528C20.5278 38.1329 16.4098 40.8036 16.4098 40.8036C15.8088 41.3378 15.8756 42.4061 16.5656 43.185L17.3892 44.142C18.0793 44.921 18.7025 45.0323 19.7264 44.6094C20.2829 44.3868 21.2401 43.875 22.4198 43.1183V59.2761C22.4198 60.2331 23.1544 61.0343 24.0447 61.0343H25.4693C26.3597 61.0343 27.0942 60.2553 27.0942 59.2761V39.3125C29.0753 37.2649 30.2996 35.1951 30.6557 34.3939C31.0786 33.4369 31.1899 32.7915 30.4999 32.0125Z" fill="white"/>
<path d="M62.2416 35.0617H46.393C46.3485 35.0617 46.3262 35.0617 46.304 35.0617C46.2817 35.0617 46.2372 35.0617 46.2149 35.0617H43.0319C42.4531 35.0617 41.9857 34.5943 41.9857 34.0157V31.8123C41.9857 31.2337 42.4531 30.7663 43.0319 30.7663H46.2149C47.1721 30.7663 47.9734 29.9873 47.9734 29.0303V27.873C47.9734 26.916 47.1943 26.1371 46.2149 26.1371H43.0319C42.4531 26.1371 41.9857 25.6697 41.9857 25.091V21.3075C41.9857 20.3505 41.2066 19.5493 40.2495 19.5493H39.092C38.1348 19.5493 37.3558 20.3283 37.3558 21.3075V25.091C37.3558 25.6697 36.8883 26.1371 36.3096 26.1371H32.9707C32.0135 26.1371 31.2122 26.916 31.2122 27.873V29.0303C31.2122 29.9873 31.9913 30.7663 32.9707 30.7663H36.3096C36.8883 30.7663 37.3558 31.2337 37.3558 31.8123V34.0157C37.3558 34.5943 36.8883 35.0617 36.3096 35.0617H32.9707C32.0135 35.0617 31.2122 35.8406 31.2122 36.7977V37.955C31.2122 38.912 31.9913 39.6909 32.9707 39.6909H36.3096C36.8883 39.6909 37.3558 40.1583 37.3558 40.7369V42.74C37.3558 43.3186 36.8883 43.786 36.3096 43.786H32.9707C32.0135 43.786 31.2122 44.565 31.2122 45.522V46.6793C31.2122 47.6363 31.9913 48.4152 32.9707 48.4152H36.3096C36.8883 48.4152 37.3558 48.8826 37.3558 49.4613V53.3338C37.3558 53.8234 36.9996 54.2686 36.5099 54.3576C33.5939 54.9807 30.6557 55.5594 30.6557 55.5594C29.6763 55.8042 29.0976 56.8057 29.3647 57.8072L29.6763 59.0091C29.9212 60.0106 30.5222 60.3667 31.9022 60.3667C33.2823 60.3667 35.1966 60.1441 39.5594 59.0313C43.9 57.9185 46.5933 56.0713 47.6395 55.3591C48.6857 54.6469 49.1977 54.1128 48.9305 53.1112L48.6189 51.9094C48.3741 50.9079 47.3724 50.307 46.393 50.5518C46.393 50.5518 45.1242 51.175 43.477 51.9317C42.787 52.2433 41.9857 51.7314 41.9857 50.9747V49.4613C41.9857 48.8826 42.4531 48.4152 43.0319 48.4152H46.2149C47.1721 48.4152 47.9734 47.6363 47.9734 46.6793V45.522C47.9734 44.565 47.1943 43.786 46.2149 43.786H43.0319C42.4531 43.786 41.9857 43.3186 41.9857 42.74V40.7369C41.9857 40.1583 42.4531 39.6909 43.0319 39.6909H46.2149C46.2372 39.6909 46.2817 39.6909 46.304 39.6909C46.3262 39.6909 46.3707 39.6909 46.393 39.6909H50.3329C50.9339 39.6909 51.4013 40.1806 51.4013 40.7592V59.2539C51.4013 60.2109 52.1359 61.0121 53.0262 61.0121H54.4508C55.3412 61.0121 56.0758 60.2331 56.0758 59.2539V40.7592C56.0758 40.1583 56.5655 39.6909 57.1442 39.6909H62.2416C63.1987 39.6909 64 38.912 64 37.955V36.7977C64 35.8406 63.221 35.0617 62.2416 35.0617Z" fill="white"/>
<path d="M54.0058 19.2373C53.9167 19.2373 53.8499 19.2373 53.7609 19.2373C53.6719 19.2373 53.6051 19.2373 53.5161 19.2373C50.8895 19.3708 49.1755 21.8412 49.6207 24.5565C50.0436 27.2272 53.2044 32.7689 53.2044 32.7689C53.3157 33.0137 53.5383 33.125 53.7609 33.125C53.9835 33.125 54.2061 33.0137 54.3174 32.7689C54.3174 32.7689 57.4782 27.2272 57.9011 24.5565C58.3463 21.8412 56.6323 19.3931 54.0058 19.2373ZM53.7609 25.6248C52.6479 25.6248 51.7576 24.7345 51.7576 23.6217C51.7576 22.5089 52.6479 21.6187 53.7609 21.6187C54.8739 21.6187 55.7642 22.5089 55.7642 23.6217C55.7642 24.7345 54.8739 25.6248 53.7609 25.6248Z" fill="white"/>
</g>
<defs>
<clipPath id="clip0_2497_22816">
<rect width="80" height="80" rx="8" fill="white"/>
</clipPath>
</defs>
</svg>

<svg xmlns="http://www.w3.org/2000/svg" width="80" height="80" fill="none" viewBox="0 0 80 80"><g clip-path="url(#a)"><rect width="80" height="80" fill="#e72420" rx="8"/><path fill="#fff" d="M30.522 20.885c.69.779.579 1.402.178 2.337-.4.934-1.936 3.583-4.563 5.897-2.649 2.337-5.053 3.628-6.055 4.051s-1.624.312-2.292-.467l-.824-.935c-.69-.779-.757-1.825-.178-2.337 0 0 3.985-2.604 5.743-4.14 1.736-1.535 4.875-5.808 4.875-5.808.579-.512 1.625-.312 2.293.467zM30.5 32.013l-.824-.957c-.69-.78-1.736-1.002-2.337-.468 0 0-3.227 4.385-5.03 5.965-1.781 1.58-5.9 4.25-5.9 4.25-.6.535-.533 1.603.157 2.382l.823.957c.69.779 1.314.89 2.337.467.557-.222 1.514-.734 2.694-1.49v16.157c0 .957.734 1.758 1.625 1.758h1.424c.89 0 1.625-.779 1.625-1.758V39.312c1.981-2.047 3.206-4.117 3.562-4.918.423-.957.534-1.602-.156-2.381"/><path fill="#fff" d="M62.242 35.062h-19.21a1.045 1.045 0 0 1-1.046-1.046v-2.204c0-.578.467-1.046 1.046-1.046h3.183c.957 0 1.758-.779 1.758-1.736v-1.157c0-.957-.779-1.736-1.758-1.736h-3.183a1.045 1.045 0 0 1-1.046-1.046v-3.783c0-.957-.78-1.759-1.736-1.759h-1.158c-.957 0-1.736.78-1.736 1.759v3.783c0 .579-.468 1.046-1.046 1.046h-3.34c-.956 0-1.758.779-1.758 1.736v1.157c0 .957.78 1.736 1.759 1.736h3.339c.578 0 1.046.468 1.046 1.046v2.204c0 .578-.468 1.046-1.046 1.046h-3.34c-.956 0-1.758.779-1.758 1.736v1.157c0 .957.78 1.736 1.759 1.736h3.339c.578 0 1.046.467 1.046 1.046v2.003c0 .579-.468 1.046-1.046 1.046h-3.34c-.956 0-1.758.779-1.758 1.736v1.157c0 .957.78 1.736 1.759 1.736h3.339c.578 0 1.046.468 1.046 1.046v3.873c0 .49-.356.935-.846 1.024a422 422 0 0 1-5.854 1.201c-.98.245-1.558 1.247-1.291 2.248l.311 1.202c.245 1.002.846 1.358 2.226 1.358s3.295-.223 7.657-1.336c4.341-1.112 7.034-2.96 8.08-3.672s1.559-1.246 1.291-2.248l-.311-1.202a1.84 1.84 0 0 0-2.226-1.357s-1.269.623-2.916 1.38c-.69.311-1.491-.2-1.491-.957V49.46c0-.578.467-1.046 1.046-1.046h3.183c.957 0 1.758-.779 1.758-1.736v-1.157c0-.957-.779-1.736-1.758-1.736h-3.183a1.045 1.045 0 0 1-1.046-1.046v-2.003c0-.579.467-1.046 1.046-1.046h7.301c.6 0 1.068.49 1.068 1.068v18.495c0 .957.735 1.758 1.625 1.758h1.425c.89 0 1.625-.779 1.625-1.758V40.759c0-.6.49-1.068 1.068-1.068h5.098c.957 0 1.758-.779 1.758-1.736v-1.157c0-.957-.779-1.736-1.758-1.736"/><path fill="#fff" d="M54.006 19.237h-.49c-2.626.134-4.34 2.604-3.895 5.32.423 2.67 3.583 8.212 3.583 8.212a.6.6 0 0 0 .557.356.6.6 0 0 0 .556-.356s3.161-5.542 3.584-8.212c.445-2.716-1.269-5.164-3.895-5.32m-.245 6.388a1.995 1.995 0 0 1-2.003-2.003c0-1.113.89-2.003 2.003-2.003s2.003.89 2.003 2.003-.89 2.003-2.003 2.003"/></g><defs><clipPath id="a"><rect width="80" height="80" fill="#fff" rx="8"/></clipPath></defs></svg>
